X:7
T:Swadeshi Dhanyavad Dhanyavad Swaraj : स्वदेशी धन्यवाद धन्यवाद स्वराज्य
M:4/4
L:1/8
Q:1/4=90
K:G
|: G,2 DG BDGB | D2 FA dFAd | E2 GB eGBe | C2 EG cEGc :|
| g2 d2 B2 G2 | f2 d2 A2 F2 | e2 B2 G2 E2 | c2 G2 E2 C2 |
